src/assets/icons/count.svg

<svg width="18" height="18" viewBox="0 0 18 18" fill="none" xmlns="http://www.w3.org/2000/svg">
<g clip-path="url(#clip0_1_694)">
<path d="M13.5 0.75H4.5C2.43237 0.75 0.75 2.43237 0.75 4.5V9C0.75 10.8108 2.04053 12.3257 3.75 12.6742V15.75H3C2.58545 15.75 2.25 16.0858 2.25 16.5C2.25 16.9142 2.58545 17.25 3 17.25H6C6.41455 17.25 6.75 16.9142 6.75 16.5C6.75 16.0858 6.41455 15.75 6 15.75H5.25V12.75H12.75V15.75H12C11.5854 15.75 11.25 16.0858 11.25 16.5C11.25 16.9142 11.5854 17.25 12 17.25H15C15.4146 17.25 15.75 16.9142 15.75 16.5C15.75 16.0858 15.4146 15.75 15 15.75H14.25V12.6742C15.9595 12.3257 17.25 10.8108 17.25 9V4.5C17.25 2.43237 15.5676 0.75 13.5 0.75ZM15.75 9C15.75 10.2407 14.7407 11.25 13.5 11.25H4.5C3.25928 11.25 2.25 10.2407 2.25 9V4.5C2.25 3.25928 3.25928 2.25 4.5 2.25H13.5C14.7407 2.25 15.75 3.25928 15.75 4.5V9Z" fill="white"/>
</g>
<defs>
<clipPath id="clip0_1_694">
<rect width="18" height="18" fill="white"/>
</clipPath>
</defs>
</svg>

<svg xmlns="http://www.w3.org/2000/svg" width="18" height="18" fill="#fff"><g clip-path="url(#count_svg__a)"><path  d="M13.5.75h-9A3.754 3.754 0 0 0 .75 4.5V9c0 1.81 1.29 3.326 3 3.674v3.076H3a.75.75 0 1 0 0 1.5h3a.75.75 0 1 0 0-1.5h-.75v-3h7.5v3H12a.75.75 0 1 0 0 1.5h3a.75.75 0 1 0 0-1.5h-.75v-3.076c1.71-.348 3-1.863 3-3.674V4.5A3.754 3.754 0 0 0 13.5.75M15.75 9c0 1.24-1.01 2.25-2.25 2.25h-9c-1.24 0-2.25-1.01-2.25-2.25V4.5c0-1.24 1.01-2.25 2.25-2.25h9c1.24 0 2.25 1.01 2.25 2.25z"></path></g><defs><clipPath id="count_svg__a"><path d="M0 0h18v18H0z"></path></clipPath></defs></svg>
